!!!OTL: 1886. Schaeferin suchen. / [Ringelspiel.]
!!!ODT: 1856
!!!ARE: Europa, Mitteleuropa, Deutschland, Schlesien, Fraustadt
!!!SCT: E1886
!!!TXL: @@DE
!!!YEM: Copyright 1995, estate of Helmut Schaffrath.
**kern	**text
*ICvox	*
*M2/4	*
*k[f#]	*
*G:	*
=1	=1
!LO:TX:a:t=Aus Frauſtadt (Schleſten) 1856.	!
{8.b/	1._Ge-
16b/	-ſtern
8.a	A-
16a	-bend
=2	=2
8g	ging
8b/	ich
4d}	aus
=3	=3
{8.f#	un-
16g	-ter
8.a	ei-
16f#	-ne
=4	=4
4a^	Lin-
4g}	-den,
=5	=5
{8.b/	Dach-
16b/	-te
8.a	dort
16a	in
=6	=6
8g	mei-
8b/	-nem
4d}	Sinn,
=7	=7
{8.f#	Schätʒchen,
16g	.
8.a	dich
16f#	ʒu
=8	=8
4a^	fin-
4g}	-den.
=9	=9
{8.b/	2._Ei,
16b/	was
8.a	thuſt
16a	du
=10	=10
8g	hier
8b/	al-
4d}	-lein,
=11	=11
{8.f#	willſt
16g	du
8.a	Läm-
16f#	-mer
=12	=12
4a^	wei-
4g}	-den?
=13	=13
{8.b/	3._Da-
16b/	-für
8.a	ſollſt
16a	du
=14	=14
8g	ins-
8b/	-ge-
4d}	-mein
=15	=15
{8.f#	ſchwe-
16g	-re
8.a	Stra-
16f#	-ſe
=16	=16
4a^	lei-
4g}	-den.
=17	=17
{8.b/	"Stra-
16b/	-ſet,
8.a	ſtra-
16a	-fet,
=18	=18
8g	wie
8b/	ihr
4d}	wollt,
=19	=19
{8.f#	ſchont
16g	mein
8.a	jun-
16f#	-ges
=20	=20
4a^	Le-
4g}	-ben!"
=21	=21
{8.b/	Nie-
16b/	-der
8.a	wer-
16a	-fen
=22	=22
8g	will
8b/	ich
4d}	mich
=23	=23
{8.f#	hier
16g	ʒu
8.a	Eu-
16f#	-ren
=24	=24
4a^	Fü-
8g}	-ßen.
{8d	Ach
=25	=25
8.b/	hol-
16b/	der
8.a	Schä-
16a	-fer,
=26	=26
8g	ſteh
8b/	doch
4d}	auf!
=27	=27
{8.f#	haſt
16g	ja
8.a	nichts
16f#	ver-
=28	=28
4a^	-bro-
4g}	-chen;
=29	=29
{8.b/	Wirſt
16b/	von
8.a	dei-
16a	-ner
=30	=30
8g	Schä-
8b/	-fer-
4d}	-ſchaar
=31	=31
{8.f#	frei
16g	und
8.a	lu-
16f#	-ſtig
=32	=32
4a^	ſpro-
4g}	-chen.
=33	=33
{8a	5._Frei
8a	und
4dd	Luſt,
=34	=34
8a	frei
8a	und
4dd}	Luſt
=35	=35
{8a	komm
8a	wir
8a	wol-
8a	-len
=36	=36
8dd	tan-
8a	-ʒen
8a	gehn!
16r}	.
{16a	Die
=37	=37
8g	An-
8g	-dern
8f#	müſ-
8f#	-ſen
=38	=38
8e	ſtil-
8e	-le
4d}	-ſtehn.
==	==
!!!AGN: Kinder - Lied, Spiel, Reigen
!!!ONB: ESAC (Essen Associative Code) Database: ERK3
!!!AMT: simple duple
!!!AIN: vox
!!!EED: Helmut Schaffrath
!!!EEV: 1.0
!!!GTL: Einige Kinderlieder. d) Spiel- und Tanzliedchen.
!!!URL-scan: https://rosdok.uni-rostock.de/mcrviewer/recordIdentifier/rosdok_ppn745177999/iview2/phys_0613.iview2?x=187.54249976177994&y=811.4177148835734&scale=0.7014306698522895&rotation=0&layout=singlePageLayout
!!!ENC: Anna Maria Matuszewska
!!!EEV: 2025/09/01
*-	*-
